dist/images/services-icons/dropper.svg

<svg width="48" height="48" viewBox="0 0 48 48" fill="none" xmlns="http://www.w3.org/2000/svg">
<circle cx="24" cy="24" r="23.5" fill="#FCFAF7" stroke="#BDA37E"/>
<path d="M24.0052 16.0553C24.7416 16.0553 25.3385 15.4584 25.3385 14.722C25.3385 13.9856 24.7416 13.3887 24.0052 13.3887C23.2688 13.3887 22.6719 13.9856 22.6719 14.722C22.6719 15.4584 23.2688 16.0553 24.0052 16.0553Z" fill="#BDA37E"/>
<path fill-rule="evenodd" clip-rule="evenodd" d="M17.3308 33.4212H18.0031V34.7546H19.3368C19.3538 35.4762 19.944 36.056 20.6698 36.056H22.0031C22.7288 36.056 23.3191 35.4762 23.336 34.7546H25.9972V37.4212H27.3306V34.7546H30.0031V33.4212H30.6641C32.1368 33.4212 33.3308 32.2274 33.3308 30.7546V14.8308C33.3308 13.358 32.1368 12.1641 30.6641 12.1641H26.6641L25.9094 11.3879C24.8622 10.3108 23.1326 10.3108 22.0854 11.3879L21.3308 12.1641H17.3308C15.858 12.1641 14.6641 13.358 14.6641 14.8308V30.7546C14.6641 32.2274 15.858 33.4212 17.3308 33.4212ZM26.6641 13.4974C26.304 13.4974 25.9591 13.3518 25.7081 13.0935L24.9534 12.3173C24.4298 11.7788 23.565 11.7788 23.0414 12.3173L22.2867 13.0935C22.0357 13.3518 21.6909 13.4974 21.3308 13.4974H17.3308C16.5944 13.4974 15.9974 14.0944 15.9974 14.8308V27.4019C16.8652 27.3878 17.6858 27.413 18.4644 27.4416C18.5834 27.446 18.7011 27.4505 18.8178 27.455C19.0317 27.463 19.2423 27.471 19.4496 27.4781C20.0715 27.4995 20.6666 27.5134 21.252 27.501C23.0034 27.4637 24.6134 27.1904 26.3253 26.1804C28.4044 24.9538 30.1641 25.3222 31.3806 26.0301C31.6064 26.1615 31.8122 26.3036 31.9974 26.4472V23.7227H29.3364V22.3894H31.9974V20.3894H29.3364V19.056H31.9974V17.056H29.3364V15.7227H31.9974V14.8308C31.9974 14.0944 31.4004 13.4974 30.6641 13.4974H26.6641ZM17.3308 32.0879C16.5944 32.0879 15.9974 31.491 15.9974 30.7546V28.7354C16.834 28.7212 17.6334 28.7452 18.4152 28.7741C18.5323 28.7784 18.6492 28.7828 18.766 28.7873C19.6169 28.8196 20.4574 28.8515 21.2803 28.834C23.1747 28.7937 25.0314 28.4919 27.0028 27.3288C28.607 26.3823 29.8474 26.6805 30.71 27.1825C31.1578 27.4432 31.5126 27.7664 31.7568 28.0285C31.8583 28.1374 31.9389 28.2337 31.9974 28.3076V30.7546C31.9974 31.491 31.4004 32.0879 30.6641 32.0879H17.3308Z" fill="#BDA37E"/>
</svg>

<svg width="48" height="48" fill="none" xmlns="http://www.w3.org/2000/svg"><circle cx="24" cy="24" r="23.5" fill="#FCFAF7" stroke="#BDA37E"/><path d="M24.005 16.055a1.333 1.333 0 100-2.666 1.333 1.333 0 000 2.666z" fill="#BDA37E"/><path fill-rule="evenodd" clip-rule="evenodd" d="M17.33 33.421h.673v1.334h1.334a1.333 1.333 0 001.333 1.301h1.333c.726 0 1.316-.58 1.333-1.301h2.661v2.666h1.334v-2.666h2.672V33.42h.661a2.667 2.667 0 002.667-2.666V14.83a2.667 2.667 0 00-2.667-2.667h-4l-.755-.776a2.667 2.667 0 00-3.824 0l-.754.776h-4a2.667 2.667 0 00-2.667 2.667v15.924a2.667 2.667 0 002.667 2.666zm9.334-19.924c-.36 0-.705-.145-.956-.403l-.755-.777a1.333 1.333 0 00-1.912 0l-.754.777a1.333 1.333 0 01-.956.403h-4c-.737 0-1.334.597-1.334 1.334V27.4c.868-.013 1.689.012 2.467.04l.354.014.632.023a32.49 32.49 0 001.802.023c1.751-.037 3.361-.31 5.073-1.32 2.08-1.227 3.84-.859 5.056-.15.225.13.431.273.616.416v-2.724h-2.66v-1.334h2.66v-2h-2.66v-1.333h2.66v-2h-2.66v-1.333h2.66v-.892c0-.737-.597-1.334-1.333-1.334h-4zm-9.333 18.59a1.333 1.333 0 01-1.334-1.332v-2.02a43.41 43.41 0 012.418.04l.351.012c.85.033 1.691.065 2.514.047 1.895-.04 3.751-.342 5.723-1.505 1.604-.947 2.844-.649 3.707-.146a4.667 4.667 0 011.287 1.125v2.447c0 .736-.597 1.333-1.333 1.333H17.331z" fill="#BDA37E"/></svg>
